X:24
T:JACKSON'S FANCY -- JIG.
R:jig
N:Relat:ed to Jackson's Morning Brush (2nd part here is the usual 4th part of JMB)
B:Coles pg. 64.4
Z:John B. Walsh, <walsh:mat:h.ubc.ca> 5/19/02
M:6/8
L:1/8
K:D
vDFA def|edc dAF|DFA dAF|(ED)D DED|
DFA def|edc dAF|DFA deg|fdd d2:|
|:fed (fa)f|(gb)g (fa)f|fed (fa)f|(ge)e eag|
fed (fa)f|(gb)g (fa)f|fed Aeg|fdd d2:|
